X: 349
T: Bir Aşîrân-Mâye
C: Ahmet Avni Konuk
O: Turkey
F: http://compmusic.upf.edu/node/140
N: asiranmaye--kupe--aksaksemai--bir--ahmet_avni_konuk
N: makam= asiranmaye
N: form= kupe
N: usul= aksaksemai = 10/8
M: 10/8
L: 1/16
K: C _1/4B   
Q: 1/4=102
%%MIDI tuningsystem comma53
G4 A2A2 AGd2 c_2/4Bc3/2B/ A2B2  | \
w:  Bir  A şî *  *  *  *  *  rân   | 
G4 d2dc cB^3/4A2 cBB4z2  | 
w:  Mâ ye  tak *  *  *  *  *  *  si  | 
e2d2 e2d2 c2c2 _2/4B2c3/2B/ A2z2  | \
w:  mi  *  ne yin  *  *  *  pür   | 
f4 feed2cdc B^3/4AB4z2  | 
w:  zevk  o *  lur    | 
e2d2 e2d2 c2c2 _2/4B2c3/2B/ A2z2  | \
w:  Nağ *  me  i  *  *  *  mev  | 
A_2/4BA2 B2c3Bd2 cBB3/2A/ G2z2  | 
w:  zû *  *  nu  kalb_ *  *  *  *  i   | 
d2d2 e2e2 d2c2 _2/4B2B2 ABAG  | G2F2 G2F3ED2 E2E4z2  | 
w:  ehl_ *  i  dil *  *  *  de   |  şevk  *  o lur    | 
|


